!!!!SEGMENT: pl-wumfc--n18053--011_noskowski-zygmunt--livia-quintilla-akt-pierwszy-scena-vi.krn
!!!cenid: 18xx:4227
!!!COM: Noskowski, Zygmunt
!!!COM-rismID: pe106604
!!!CDT: 1846/05/02-1909/07/23
!!!CNT: Polish
!!!GTL: Livia Quintilla
!!!OTL: Akt pierwszy - Scena VI
!!!OMV: 011
!!!PDT: 1898
!!!AGN:
!!!SMS-siglum: PL-Wumfc
!!!SMS-shelfmark: N18053
!!!SMS-shelfwork: 011-011 G
!!!SMS-variant:
!!!SMS-altvar:
!!!NIFC-rismSourceID: 1001161204
!!!NIFC-rismChildID: 1001161204
!!!NIFC-islandoraID: pl-wumfc:1491
!!!URL-pdf-islandora: https://repozytorium.nifc.pl/islandora/object/pl-wumfc:1491/datastream/PDF/view
!!!URL-scan: https://polish.musicsources.pl/pl/lokalizacje/galeria/druki-muzyczne/11843/42 @EN{Scan on Polish Music Sources Website} @PL{Skany w portalu Dziedzictwo Muzyki Polskiej w otwartym dostępie}
!!!IIIF:
!!!ONB-nifc: Skany 0042-0043
!!!AIN: 2 piano 1 vox
!!!key:
**kern	**kern	**dynam	**kern	**text	**dynam
*part3	*part2	*part2	*part1	*part1	*part1
*staff3	*staff2	*	*staff1	*staff1	*
*I"[Piano]	*I"[Piano]	*	*I"Livia.	*	*
*I'[pf]	*I'[pf]	*	*I'Li	*	*
*ICklav	*ICklav	*	*ICvox	*	*
*Ipiano	*Ipiano	*	*Ivox	*	*
*clefF4	*clefG2	*	*clefG2	*	*
*k[]	*k[]	*	*k[]	*	*
*a-:	*a-:	*	*a-:	*	*
*M4/4	*M4/4	*	*M4/4	*	*
*met(c)	*met(c)	*	*met(c)	*	*
=1	=1	=1	=1	=1	=1
*tremolo	*tremolo	*	*	*	*
!	!LO:TX:a:B:t=Allegro.	!	!	!	!
8BBB-X/ 8BB-X	8dd-X\ 8ff 8bb-X 8ddd-X	fz	1ryy	.	.
8r	8r	.	.	.	.
4r	32ddd-\LLL	.	.	.	.
.	32dd-\	.	.	.	.
.	32ddd-\	.	.	.	.
.	32dd-\	.	.	.	.
.	32ddd-\	.	.	.	.
.	32dd-\	.	.	.	.
.	32ddd-\	.	.	.	.
.	32dd-\	.	.	.	.
2r	32ddd-\	.	.	.	.
.	32dd-\	.	.	.	.
.	32ddd-\	.	.	.	.
.	32dd-\	.	.	.	.
.	32ddd-\	.	.	.	.
.	32dd-\	.	.	.	.
.	32ddd-\	.	.	.	.
.	32dd-\	.	.	.	.
.	32ddd-\	.	.	.	.
.	32dd-\	.	.	.	.
.	32ddd-\	.	.	.	.
.	32dd-\	.	.	.	.
.	32ddd-\	.	.	.	.
.	32dd-\	.	.	.	.
.	32ddd-\	.	.	.	.
.	32dd-\JJJ	.	.	.	.
=2	=2	=2	=2	=2	=2
1r	32ddd-X\LLL	.	1ryy	.	.
.	32dd-X\	.	.	.	.
.	32ddd-\	.	.	.	.
.	32dd-\	.	.	.	.
.	32ddd-\	.	.	.	.
.	32dd-\	.	.	.	.
.	32ddd-\	.	.	.	.
.	32dd-\	.	.	.	.
.	32ddd-\	.	.	.	.
.	32dd-\	.	.	.	.
.	32ddd-\	.	.	.	.
.	32dd-\	.	.	.	.
.	32ddd-\	.	.	.	.
.	32dd-\	.	.	.	.
.	32ddd-\	.	.	.	.
.	32dd-\JJJ	.	.	.	.
.	32ddd-\LLL	.	.	.	.
.	32dd-\	.	.	.	.
.	32ddd-\	.	.	.	.
.	32dd-\	.	.	.	.
.	32ddd-\	.	.	.	.
.	32dd-\	.	.	.	.
.	32ddd-\	.	.	.	.
.	32dd-\	.	.	.	.
.	32ddd-\	.	.	.	.
.	32dd-\	.	.	.	.
.	32ddd-\	.	.	.	.
.	32dd-\	.	.	.	.
.	32ddd-\	.	.	.	.
.	32dd-\	.	.	.	.
.	32ddd-\	.	.	.	.
.	32dd-\JJJ	.	.	.	.
=3	=3	=3	=3	=3	=3
32c\LLL 32e	32cc\LLL 32ee	.	1ryy	.	.
32A\	32a\	.	.	.	.
32c\ 32e	32cc\ 32ee	.	.	.	.
32A\	32a\	.	.	.	.
32c\ 32e	32cc\ 32ee	.	.	.	.
32A\	32a\	.	.	.	.
32c\ 32e	32cc\ 32ee	.	.	.	.
32A\	32a\	.	.	.	.
32c\ 32e	32cc\ 32ee	.	.	.	.
32A\	32a\	.	.	.	.
32c\ 32e	32cc\ 32ee	.	.	.	.
32A\	32a\	.	.	.	.
32c\ 32e	32cc\ 32ee	.	.	.	.
32A\	32a\	.	.	.	.
32c\ 32e	32cc\ 32ee	.	.	.	.
32A\JJJ	32a\JJJ	.	.	.	.
32c\LLL 32e	32cc\LLL 32ee	.	.	.	.
32A\	32a\	.	.	.	.
32c\ 32e	32cc\ 32ee	.	.	.	.
32A\	32a\	.	.	.	.
32c\ 32e	32cc\ 32ee	.	.	.	.
32A\	32a\	.	.	.	.
32c\ 32e	32cc\ 32ee	.	.	.	.
32A\	32a\	.	.	.	.
32c\ 32e	32cc\ 32ee	.	.	.	.
32A\	32a\	.	.	.	.
32c\ 32e	32cc\ 32ee	.	.	.	.
32A\	32a\	.	.	.	.
32c\ 32e	32cc\ 32ee	.	.	.	.
32A\	32a\	.	.	.	.
32c\ 32e	32cc\ 32ee	.	.	.	.
32A\JJJ	32a\JJJ	.	.	.	.
=4	=4	=4	=4	=4	=4
32c\LLL 32e	32cc\LLL 32ee	.	1ryy	.	.
32A\	32a\	.	.	.	.
32c\ 32e	32cc\ 32ee	.	.	.	.
32A\	32a\	.	.	.	.
32c\ 32e	32cc\ 32ee	.	.	.	.
32A\	32a\	.	.	.	.
32c\ 32e	32cc\ 32ee	.	.	.	.
32A\	32a\	.	.	.	.
32c\ 32e	32cc\ 32ee	.	.	.	.
32A\	32a\	.	.	.	.
32c\ 32e	32cc\ 32ee	.	.	.	.
32A\	32a\	.	.	.	.
32c\ 32e	32cc\ 32ee	.	.	.	.
32A\	32a\	.	.	.	.
32c\ 32e	32cc\ 32ee	.	.	.	.
32A\JJJ	32a\JJJ	.	.	.	.
32c\LLL 32e	32cc\LLL 32ee	.	.	.	.
32A\	32a\	.	.	.	.
32c\ 32e	32cc\ 32ee	.	.	.	.
32A\	32a\	.	.	.	.
32c\ 32e	32cc\ 32ee	.	.	.	.
32A\	32a\	.	.	.	.
32c\ 32e	32cc\ 32ee	.	.	.	.
32A\	32a\	.	.	.	.
32c\ 32e	32cc\ 32ee	.	.	.	.
32A\	32a\	.	.	.	.
32c\ 32e	32cc\ 32ee	.	.	.	.
32A\	32a\	.	.	.	.
32c\ 32e	32cc\ 32ee	.	.	.	.
32A\	32a\	.	.	.	.
32c\ 32e	32cc\ 32ee	.	.	.	.
32A\JJJ	32a\JJJ	.	.	.	.
=5	=5	=5	=5	=5	=5
32CC/LLL	32cc\LLL 32ee-X 32gg	ff	1ryy	.	.
32C/	32a\	.	.	.	.
32CC/	32cc\ 32ee- 32gg	.	.	.	.
32C/	32a\	.	.	.	.
32CC/	32cc\ 32ee- 32gg	.	.	.	.
32C/	32a\	.	.	.	.
32CC/	32cc\ 32ee- 32gg	.	.	.	.
32C/	32a\	.	.	.	.
32CC/	32cc\ 32ee- 32gg	.	.	.	.
32C/	32a\	.	.	.	.
32CC/	32cc\ 32ee- 32gg	.	.	.	.
32C/	32a\	.	.	.	.
32CC/	32cc\ 32ee- 32gg	.	.	.	.
32C/	32a\	.	.	.	.
32CC/	32cc\ 32ee- 32gg	.	.	.	.
32C/JJJ	32a\JJJ	.	.	.	.
32CC/LLL	32cc\LLL 32ee- 32gg	.	.	.	.
32C/	32a\	.	.	.	.
32CC/	32cc\ 32ee- 32gg	.	.	.	.
32C/	32a\	.	.	.	.
32CC/	32cc\ 32ee- 32gg	.	.	.	.
32C/	32a\	.	.	.	.
32CC/	32cc\ 32ee- 32gg	.	.	.	.
32C/	32a\	.	.	.	.
32CC/	32cc\ 32ee- 32gg	.	.	.	.
32C/	32a\	.	.	.	.
32CC/	32cc\ 32ee- 32gg	.	.	.	.
32C/	32a\	.	.	.	.
32CC/	32cc\ 32ee- 32gg	.	.	.	.
32C/	32a\	.	.	.	.
32CC/	32cc\ 32ee- 32gg	.	.	.	.
32C/JJJ	32a\JJJ	.	.	.	.
=6	=6	=6	=6	=6	=6
32CC/LLL	32cc\LLL 32ee-X 32gg	.	1ryy	.	.
32C/	32a\	.	.	.	.
32CC/	32cc\ 32ee- 32gg	.	.	.	.
32C/	32a\	.	.	.	.
32CC/	32cc\ 32ee- 32gg	.	.	.	.
32C/	32a\	.	.	.	.
32CC/	32cc\ 32ee- 32gg	.	.	.	.
32C/	32a\	.	.	.	.
32CC/	32cc\ 32ee- 32gg	.	.	.	.
32C/	32a\	.	.	.	.
32CC/	32cc\ 32ee- 32gg	.	.	.	.
32C/	32a\	.	.	.	.
32CC/	32cc\ 32ee- 32gg	.	.	.	.
32C/	32a\	.	.	.	.
32CC/	32cc\ 32ee- 32gg	.	.	.	.
32C/JJJ	32a\JJJ	.	.	.	.
32CC/LLL	32cc\LLL 32ee- 32gg	.	.	.	.
32C/	32a\	.	.	.	.
32CC/	32cc\ 32ee- 32gg	.	.	.	.
32C/	32a\	.	.	.	.
32CC/	32cc\ 32ee- 32gg	.	.	.	.
32C/	32a\	.	.	.	.
32CC/	32cc\ 32ee- 32gg	.	.	.	.
32C/	32a\	.	.	.	.
32CC/	32cc\ 32ee- 32gg	.	.	.	.
32C/	32a\	.	.	.	.
32CC/	32cc\ 32ee- 32gg	.	.	.	.
32C/	32a\	.	.	.	.
32CC/	32cc\ 32ee- 32gg	.	.	.	.
32C/	32a\	.	.	.	.
32CC/	32cc\ 32ee- 32gg	.	.	.	.
32C/JJJ	32a\JJJ	.	.	.	.
!!LO:LB:g=original	!	!	!	!	!
=7	=7	=7	=7	=7	=7
!	!	!	!LO:TX:a:t=Livia.(sama)	!	!
4CC/ 4C	4g\ 4cc 4ee-X 4gg	.	2r	.	.
4r	4r	.	.	.	.
!	!	!	!	!	!LO:DY:a
2r	2r	.	[2gg\	Prze-	f
=8	=8	=8	=8	=8	=8
1r	1r	.	1gg]	.	.
=9	=9	=9	=9	=9	=9
8r	8r	.	4g/	-bóg!	.
4CC^^/ 4C	4e-X/ 4g 4cc 4ee-X	ff	.	.	.
.	.	.	4r	.	.
4CC/ 4C	4d^^/ 4f 4a-X 4b	.	.	.	.
.	.	.	2r	.	.
*Xtremolo	*	*	*	*	*
16CC/LL 16C	16f/LL 16a- 16b 16dd	.	.	.	.
16CC/JJ 16C	16d/JJ 16f 16a- 16b	.	.	.	.
8CC/L 8C	8f/L 8a- 8b 8dd	.	.	.	.
8CC/J 8C	8e-/J 8g 8cc	.	.	.	.
=10	=10	=10	=10	=10	=10
8r	8r	.	1r	.	.
4CC^^/ 4C	4a-X^^\ 4b 4dd 4ff	.	.	.	.
4CC^^/ 4C	4g^^\ 4cc 4ee-X	.	.	.	.
16CC/LL 16C	16g\LL 16cc 16ee- 16gg	.	.	.	.
16AAA-X/JJ 16AA-X	16a-X\JJ 16cc 16ee- 16aa-X	.	.	.	.
8CC/L 8C	8g\L 8cc 8ee- 8gg	.	.	.	.
8AA-X/J 8A-X	8f\J 8cc 8dd 8ff	.	.	.	.
=11	=11	=11	=11	=11	=11
4CC/ 4C	4g\ 4cc 4ee-X 4gg	.	4r	.	.
4r	4r	.	4cc\	Co	.
2r	2r	.	4.ee-X\	rzekł	.
.	.	.	8b\	o-	.
=12	=12	=12	=12	=12	=12
1r	1r	.	4cc\	-kru-	.
.	.	.	4ee-X\	-tnik	.
.	.	.	[2aan\	ten!	.
!!LO:LB:g=original	!	!	!	!	!
=13	=13	=13	=13	=13	=13
8r	8r	.	4aa\]	.	.
4BBB^^/ 4BB	4d#X^^/ 4an 4b 4dd#X	ff	.	.	.
.	.	.	4r	.	.
4FF#X^^/ 4F#X	4B^^/ 4d# 4a 4b	.	.	.	.
.	.	.	2r	.	.
16AA/LL 16A	16d#/LL 16f#X 16b 16dd#	.	.	.	.
16GG#X/JJ 16G#X	16dn/JJ 16f# 16b 16ddn	.	.	.	.
8AA/L 8A	8d#X/L 8f# 8b 8dd#X	.	.	.	.
8GGn/J 8G#	8e/J 8g 8b 8ee	.	.	.	.
=14	=14	=14	=14	=14	=14
8FF#X/ 8F#X	8f\ 8a 8dd#X 8ff	.	1r	.	.
4BBB^^/ 4BB	4a^^\ 4cc 4dd# 4ff 4aa	.	.	.	.
4EE^^/ 4E	4g^^\ 4b 4ee 4gg	.	.	.	.
16AA\LL 16A	16g\LL 16cc 16ee 16gg	.	.	.	.
16C\JJ 16c	16f\JJ 16a 16ee 16ff	.	.	.	.
8AA/L 8A	8g\L 8cc 8ee 8gg	.	.	.	.
8CC/J 8C	8a\J 8ee 8ff 8aa	.	.	.	.
=15||	=15||	=15||	=15||	=15||	=15||
*k[f#]	*k[f#]	*	*k[f#]	*	*
*M3/4	*M3/4	*	*M3/4	*	*
!	!LO:TX:a:B:t=Andante.	!	!LO:TX:a:B:t=Andante.	!	!
(8qBBB/	.	.	.	.	.
!	!	!	!	!LO:N:vis=1	!
4.BB^^/)	32dd#X\LLL 32ff# 32bb	>	2.r	.	.
.	32b\	.	.	.	.
.	32dd#\ 32ff# 32bb	.	.	.	.
.	32b\	.	.	.	.
.	32dd#\ 32ff# 32bb	.	.	.	.
.	32b\	.	.	.	.
.	32dd#\ 32ff# 32bb	.	.	.	.
.	32b\	.	.	.	.
.	32dd#\ 32ff# 32bb	.	.	.	.
.	32b\	.	.	.	.
.	32dd#\ 32ff# 32bb	.	.	.	.
.	32b\	.	.	.	.
8D#X\	32dd#\ 32ff# 32bb	.	.	.	.
.	32b\	.	.	.	.
.	32dd#\ 32ff# 32bb	.	.	.	.
.	32b\	.	.	.	.
!LO:TUP:a	!	!	!	!	!
12F#\L	32dd#\ 32ff# 32bb	.	.	.	.
.	32b\	.	.	.	.
.	32dd#\ 32ff# 32bb	.	.	.	.
12G\	.	.	.	.	.
.	32b\	.	.	.	.
.	32dd#\ 32ff# 32bb	.	.	.	.
.	32b\	.	.	.	.
12D#\J	.	.	.	.	.
.	32dd#\ 32ff# 32bb	.	.	.	.
.	32b\JJJ	]]	.	.	.
=16	=16	=16	=16	=16	=16
8F#\L	32ee\LLL 32gg 32bb	p	8r	.	.
.	32b\	.	.	.	.
.	32ee\ 32gg 32bb	.	.	.	.
.	32b\	.	.	.	.
!	!	!	!	!	!LO:DY:a
8E\J	32ee\ 32gg 32bb	.	8ee\	Czy	p
.	32b\	.	.	.	.
.	32ee\ 32gg 32bb	.	.	.	.
.	32b\JJJ	.	.	.	.
4B\	4g\ 4ee 4gg	.	4.dd\	ro	.
4r	4r	.	.	.	.
.	.	.	8cc\	strasz-	.
!!LO:LB:g=original	!	!	!	!	!
=17	=17	=17	=17	=17	=17
*^	*	*	*	*	*
4.E/	2.C\	32ee\LLL 32gg	<	8.b\	-li-	.
.	.	32g\	.	.	.	.
.	.	32ee\ 32gg	.	.	.	.
.	.	32g\	.	.	.	.
.	.	32ee\ 32gg	.	.	.	.
.	.	32g\	.	.	.	.
.	.	32ee\ 32gg	.	16a#X/	-wy	.
.	.	32g\	.	.	.	.
.	.	32ee\ 32gg	.	[2gg\	sen?	.
.	.	32g\	.	.	.	.
.	.	32ee\ 32gg	.	.	.	.
.	.	32g\	.	.	.	.
8G/	.	32ee\ 32gg	.	.	.	.
.	.	32g\	.	.	.	.
.	.	32ee\ 32gg	.	.	.	.
.	.	32g\	.	.	.	.
12A#X/L	.	32ee\ 32gg	.	.	.	.
.	.	32g\	.	.	.	.
.	.	32ee\ 32gg	.	.	.	.
12c/	.	.	.	.	.	.
.	.	32g\	.	.	.	.
.	.	32ee\ 32gg	.	.	.	.
.	.	32g\	.	.	.	.
12G/J	.	.	.	.	.	.
.	.	32ee\ 32gg	.	.	.	.
.	.	32g\JJJ	.	.	.	.
*v	*v	*	*	*	*	*
=18	=18	=18	=18	=18	=18
8c\L	32ee\LLL 32gg	.	4gg\]	.	.
.	32g\	.	.	.	.
.	32ee\ 32gg	.	.	.	.
.	32g\	.	.	.	.
8A#X\J	32ee\ 32gg	.	.	.	.
.	32g\	.	.	.	.
.	32ee\ 32gg	.	.	.	.
.	32g\	.	.	.	.
4.e^^\	32ee\ 32gg	.	4r	.	.
.	32g\	.	.	.	.
.	32ee\ 32gg	.	.	.	.
.	32g\	.	.	.	.
.	32ee\ 32gg	.	.	.	.
.	32g\	.	.	.	.
.	32ee\ 32gg	.	.	.	.
.	32g\JJJ	.	.	.	.
.	8ee\ 8gg	.	8r	.	.
8A#\	8r	.	8ee\	Do	.
=19	=19	=19	=19	=19	=19
*^	*	*	*	*	*
8e/L	2.E\	(32g/LLL	f	4.gg\	ko-	.
.	.	32a/	.	.	.	.
.	.	32a#X/	.	.	.	.
.	.	32b/	.	.	.	.
8B^</J	.	32dd/	.	.	.	.
.	.	32cc#X/	.	.	.	.
.	.	32ccn/	.	.	.	.
.	.	32b/JJJ)	.	.	.	.
8e^</L	.	(32g/LLL	.	.	.	.
.	.	32an/	.	.	.	.
.	.	32a#X/	.	.	.	.
.	.	32b/	.	.	.	.
8d#X^</J	.	32dd/	.	8ff#\	-ła	.
.	.	32cc#X/	.	.	.	.
.	.	32ccn/	.	.	.	.
.	.	32b/JJJ)	.	.	.	.
*	*	*	*	*Xbrackettup	*	*
(>4B^</	.	(32g/LLL	.	(12dd#X\L	wszyst-	.
.	.	32an/	.	.	.	.
.	.	32a#X/	.	.	.	.
.	.	.	.	12ff#\J)	.	.
.	.	32b/	.	.	.	.
.	.	32dd/	.	.	.	.
.	.	32cc#X/	.	.	.	.
.	.	.	.	12ee\	-ko	.
.	.	32ccn/	.	.	.	.
.	.	32b/JJJ)	.	.	.	.
*v	*v	*	*	*	*	*
!!LO:LB:g=original	!	!	!	!	!
=20	=20	=20	=20	=20	=20
8E\L) 8B	(32g/LLL	.	8g/	w ni-	.
.	32a/	.	.	.	.
.	32a#X/	.	.	.	.
.	32b/	.	.	.	.
8G^^\J	32dd#X/	.	8dd#X\	-cość	.
.	32ddn/	.	.	.	.
.	32cc#X/	.	.	.	.
.	32ccn/JJJ)	.	.	.	.
8f#^^\	(32b/LLL	.	(8ddn\L	się	.
.	32cc/	.	.	.	.
.	32b/	.	.	.	.
.	32an/	.	.	.	.
4e^^\	32g/	.	8cc#X\J)	.	.
.	32f#/	.	.	.	.
.	32g/	.	.	.	.
.	32f#/JJJ)	.	.	.	.
.	(32g/LLL	.	(8ccn\L	roz-	.
.	32a/	.	.	.	.
.	32b/	.	.	.	.
.	32dd#X/	.	.	.	.
8g\	32ee/	.	8b\J)	.	.
.	32dd#/	.	.	.	.
.	32ee/	.	.	.	.
.	32ff#/JJJ)	.	.	.	.
=21	=21	=21	=21	=21	=21
2.E\ 2.B	(32gg\LLL	.	(16gg\LL	-wia-	.
.	32aa\	.	.	.	.
.	32gg\	.	16ee\JJ)	.	.
.	32aa\	.	.	.	.
.	32gg\	.	8b\	-ło.	.
.	32aa\	.	.	.	.
.	32bb\	.	.	.	.
.	32ff#\JJJ	.	.	.	.
.	32gg\LLL	.	4r	.	.
.	32dd#X\	.	.	.	.
.	32ee\	.	.	.	.
.	32ff#\	.	.	.	.
.	32gg\	.	.	.	.
.	32aa\	.	.	.	.
.	32bb\	.	.	.	.
.	32ccc\JJJ	.	.	.	.
*	*8va	*	*	*	*
.	32bb\LLL	.	4r	.	.
.	32ddd#X\	.	.	.	.
.	32eee\	.	.	.	.
.	32ddd#\	.	.	.	.
.	32eee\	.	.	.	.
.	32fff#\	.	.	.	.
.	32ggg\	.	.	.	.
.	32aaa\JJJ)	.	.	.	.
=22	=22	=22	=22	=22	=22
8GG/ 8E 8G	8bb\ 8eee 8bbb	sf	2.r	.	.
*	*X8va	*	*	*	*
8r	8r	.	.	.	.
4r	4r	.	.	.	.
4r	4r	.	.	.	.
!!LO:PB:g=original	!	!	!	!	!
=23||	=23||	=23||	=23||	=23||	=23||
*M4/4	*M4/4	*	*M4/4	*	*
*met(c)	*met(c)	*	*met(c)	*	*
*^	*^	*	*	*	*
!	!	!LO:TX:a:B:t=Moderato.	!	!	!LO:TX:a:B:t=Moderato.	!	!
4r	2.ryy	4r	2.ryy	.	1r	.	.
4.AAA#X^^/ 4.AA#X	.	4.F#^^/ 4.c 4.e 4.f#	.	.	.	.	.
(8BBB/ 8BB	.	8F#/ 8B 8d#X 8f#	.	p	.	.	.
!	!	!LO:N:vis=8	!	!	!	!	!
8.F#/L 8.A	16CC\LL 16C	8.f#/L	16dn\LL	.	.	.	.
.	16CC#X\ 16C#X	.	16c#X\	.	.	.	.
.	16CCn\ 16Cn	.	16d\	.	.	.	.
16F#/Jk 16A	16BBB\JJ) 16BB	16f#/Jk	16d#X\JJ	.	.	.	.
=24	=24	=24	=24	=24	=24	=24	=24
2F#X/	(8AAA#X\L 8AA#X	2f#/	8c\L 8e	.	1r	.	.
.	8BBB\ 8BB	.	8B\ 8d#X	.	.	.	.
.	8CC\ 8C	.	8A\ 8dn	.	.	.	.
.	8CC#X\J 8C#X	.	8A\J 8c	.	.	.	.
4F#/	4DD#X\) 4D#X	4f#/	4A\ 4cn	.	.	.	.
4r	4r	4r	4ryy	.	.	.	.
*v	*v	*	*	*	*	*	*
=25	=25	=25	=25	=25	=25	=25
(8e\L	2f#/ 2a	2ryy	p	1r	.	.
8d#X\	.	.	.	.	.	.
8dn\	.	.	.	.	.	.
8c\J	.	.	.	.	.	.
8B\L	(4a/	2e\	.	.	.	.
8A#X\	.	.	.	.	.	.
8B\	4g/)	.	.	.	.	.
8c\J)	.	.	.	.	.	.
*	*v	*v	*	*	*	*
=26	=26	=26	=26	=26	=26
!	!	!	!LO:TX:a:t=(ze drzeniem)	!	!LO:DY:a
1r	32d#X/LLL 32g	.	2g/	Ser-	p
.	32B/	.	.	.	.
.	32d#/ 32g	.	.	.	.
.	32B/	.	.	.	.
.	32d#/ 32g	.	.	.	.
.	32B/	.	.	.	.
.	32d#/ 32g	.	.	.	.
.	32B/	.	.	.	.
.	32d#/ 32g	.	.	.	.
.	32B/	.	.	.	.
.	32d#/ 32g	.	.	.	.
.	32B/	.	.	.	.
.	32d#/ 32g	.	.	.	.
.	32B/	.	.	.	.
.	32d#/ 32g	.	.	.	.
.	32B/JJJ	.	.	.	.
.	32d#/LLL 32g	.	4g/	-ce	.
.	32B/	.	.	.	.
.	32d#/ 32g	.	.	.	.
.	32B/	.	.	.	.
.	32d#/ 32g	.	.	.	.
.	32B/	.	.	.	.
.	32d#/ 32g	.	.	.	.
.	32B/	.	.	.	.
.	32d#/ 32g	.	8r	.	.
.	32B/	.	.	.	.
.	32d#/ 32g	.	.	.	.
.	32B/	.	.	.	.
.	32d#/ 32g	.	8dd#X\	zdręt-	.
.	32B/	.	.	.	.
.	32d#/ 32g	.	.	.	.
.	32B/JJJ	.	.	.	.
=27	=27	=27	=27	=27	=27
4r	32dn/LLL 32g#X	.	8b\	-wia-	.
.	32B/	.	.	.	.
.	32d/ 32g#	.	.	.	.
.	32B/	.	.	.	.
.	32d/ 32g#	.	8g#X/	-ło	.
.	32B/	.	.	.	.
.	32d/ 32g#	.	.	.	.
.	32B/	.	.	.	.
4.EE/ 4.E	32d/ 32g#	mf	4r	.	.
.	32B/	.	.	.	.
.	32d/ 32g#	.	.	.	.
.	32B/	.	.	.	.
.	32d/ 32g#	.	.	.	.
.	32B/	.	.	.	.
.	32d/ 32g#	.	.	.	.
.	32B/JJJ	.	.	.	.
.	32d/LLL 32g#	.	2r	.	.
.	32B/	.	.	.	.
.	32d/ 32g#	.	.	.	.
.	32B/	.	.	.	.
(8DD/ 8D	32d/ 32g#	.	.	.	.
.	32B/	.	.	.	.
.	32d/ 32g#	.	.	.	.
.	32B/	.	.	.	.
16CC/LL 16C	32d/ 32g#	.	.	.	.
.	32B/	.	.	.	.
16BBB/ 16BB	32d/ 32g#	.	.	.	.
.	32B/	.	.	.	.
16CC/ 16C	32d/ 32g#	.	.	.	.
.	32B/	.	.	.	.
16DD/JJ) 16D	32d/ 32g#	.	.	.	.
.	32B/JJJ	.	.	.	.
!!LO:LB:g=original	!	!	!	!	!
=28	=28	=28	=28	=28	=28
(8EE/L 8E	32d/LLL 32g#X	.	1r	.	.
.	32B/	.	.	.	.
.	32d/ 32g#	.	.	.	.
.	32B/	.	.	.	.
8DD/ 8D	32d/ 32g#	.	.	.	.
.	32B/	.	.	.	.
.	32d/ 32g#	.	.	.	.
.	32B/	.	.	.	.
8CC/ 8C	32d/ 32g#	.	.	.	.
.	32B/	.	.	.	.
.	32d/ 32g#	.	.	.	.
.	32B/	.	.	.	.
8BBB/J) 8BB	32d/ 32g#	.	.	.	.
.	32B/	.	.	.	.
.	32d/ 32g#	.	.	.	.
.	32B/JJJ	.	.	.	.
(4.AAA/ 4.AA	32d/LLL 32b	<	.	.	.
.	32B/	.	.	.	.
.	32d/ 32b	.	.	.	.
.	32B/	.	.	.	.
.	32d/ 32b	.	.	.	.
.	32B/	.	.	.	.
.	32d/ 32b	.	.	.	.
.	32B/	.	.	.	.
.	32d/ 32b	.	.	.	.
.	32B/	.	.	.	.
.	32d/ 32b	.	.	.	.
.	32B/	.	.	.	.
16BBB/LL 16BB	32d/ 32b	.	.	.	.
.	32B/	.	.	.	.
16AAA/JJ) 16AA	32d/ 32b	.	.	.	.
.	32B/JJJ	[[	.	.	.
=29	=29	=29	=29	=29	=29
!	!	!	!	!	!LO:DY:a
2.GGG#X/ 2.GG#X	32d/LLL 32b	.	4.ee\	Prze-	f
.	32B/	.	.	.	.
.	32d/ 32b	.	.	.	.
.	32B/	.	.	.	.
.	32d/ 32b	.	.	.	.
.	32B/	.	.	.	.
.	32d/ 32b	.	.	.	.
.	32B/	.	.	.	.
.	32d/ 32b	.	.	.	.
.	32B/	.	.	.	.
.	32d/ 32b	.	.	.	.
.	32B/	.	.	.	.
.	32d/ 32b	.	8ee\	-szłość	.
.	32B/	.	.	.	.
.	32d/ 32b	.	.	.	.
.	32B/JJJ	.	.	.	.
.	32d#X/LLL 32b	>	(8dd#X\L	z gro-	.
.	32B/	.	.	.	.
.	32d#/ 32b	.	.	.	.
.	32B/	.	.	.	.
.	32d#/ 32b	.	8cc#X\J)	.	.
.	32B/	.	.	.	.
.	32d#/ 32b	.	.	.	.
.	32B/JJJ	.	.	.	.
4GGG#/ 4GG#	32B/LLL 32d#X	.	8b\	-bu	.
.	32G#X/	.	.	.	.
.	32B/ 32d#	.	.	.	.
.	32G#/	.	.	.	.
.	32B/ 32d#	] p	16r	.	.
.	32G#/	.	.	.	.
!	!	!	!	!	!LO:DY:a
.	32B/ 32d#	.	16d#X/	wy-	p
.	32G#X/JJJ	.	.	.	.
=30	=30	=30	=30	=30	=30
*	*Xtremolo	*	*	*	*
2GGG#X\ 2GG#X	32d#X/LLL 32f#X	.	8f#/	-chy-	.
.	32F#X</	.	.	.	.
.	32d#/ 32f#	.	.	.	.
.	32F#</JJJ	.	.	.	.
.	32dn/LLL 32fn	.	8fn/	-la	.
.	32Fn</	.	.	.	.
.	32d/ 32f	.	.	.	.
.	32F</JJJ	.	.	.	.
.	32c#X/LLL 32e	.	8e/	tru-	.
.	32E</	.	.	.	.
.	32c#/ 32e	.	.	.	.
.	32E</JJJ	.	.	.	.
.	32B/LLL 32d#X	.	8d#X/	-pią	.
.	32D#X</	.	.	.	.
.	32B/ 32d#	.	.	.	.
.	32D#</JJJ	.	.	.	.
*tremolo	*tremolo	*	*	*	*
32FFF#X\LLL	32A#X</LLL 32d#	.	[2dd#X\	twarz.	.
32FF#X\	32D#/	.	.	.	.
32FFF#X\	32A#/ 32d#	.	.	.	.
32FF#X\	32D#/	.	.	.	.
32FFF#X\	32A#/ 32d#	.	.	.	.
32FF#X\	32D#/	.	.	.	.
32FFF#X\	32A#/ 32d#	.	.	.	.
32FF#X\	32D#/	.	.	.	.
32FFF#X\	32A#/ 32d#	.	.	.	.
32FF#X\	32D#/	.	.	.	.
32FFF#X\	32A#/ 32d#	.	.	.	.
32FF#X\	32D#/	.	.	.	.
32FFF#X\	32A#/ 32d#	.	.	.	.
32FF#X\	32D#/	.	.	.	.
32FFF#X\	32A#/ 32d#	.	.	.	.
32FF#X\JJJ	32D#</JJJ	.	.	.	.
!!LO:LB:g=original	!	!	!	!	!
=31	=31	=31	=31	=31	=31
8FFF#\ 8FF#	8D#X</ 8A#X< 8d#X	.	8dd#\]	.	.
8r	8r	.	8r	.	.
(4.BB^^/	4r	f	4r	.	.
.	2r	.	4r	.	.
8AA#X/	.	.	.	.	.
!	!	!	!	!	!LO:DY:a
16FF##X/LL	.	.	4dd#X\	Ach!	f
16GG#X/	.	.	.	.	.
16AA#X/	.	.	.	.	.
16GG#/JJ)	.	.	.	.	.
=32	=32	=32	=32	=32	=32
1EE 1C#X 1E 1G#X	(2B<^^/	>	4.ff#\	od-	.
.	.	.	8ee\	-dam	.
.	4B#X</	.	4b#X\	wszy-	.
.	4c#X</)	]]	8cc#X\	-stko,	.
.	.	.	8r	.	.
=33	=33	=33	=33	=33	=33
2CC#X\ 2C#X	2E</ 2G#X< 2c#X 2e	>	(8dd#X\L	wszy-	.
.	.	.	8ee\J)	.	.
!	!	!	!	!	!LO:HP:a:t=dim.
.	.	.	8.b#X\	-stko	>
.	.	.	16cc#X\	z ra-	.
2AAA#X/ 2AA#X	2G#X/ 2c# 2e 2g#X	]]	(4ff#\	-doś-	.
.	.	.	4ee\)	.	.
=34	=34	=34	=34	=34	=34
[2DD#X\ [<2AA#X	[>2F##X</ [>2c#X< [2d#X [2a#X	p	[2dd#X\	-cią!	.
4DD#\] 4AA#]	4F##</] 4c#<] 4d#] 4a#]	.	4dd#;\]	.	.
4r;	4r;	.	4r;	.	.
!!LO:LB:g=original	!	!	!	!	!
=35||	=35||	=35||	=35||	=35||	=35||
*k[f#c#g#d#a#]	*k[f#c#g#d#a#]	*	*k[f#c#g#d#a#]	*	*
*M6/8	*M6/8	*	*M6/8	*	*
!	!LO:TX:a:B:t=Allegro doloroso.	!	!LO:TX:a:B:t=Andante doloroso.	!	!
2.r	(16d#/LL	f	2.r	.	.
.	16e/	.	.	.	.
.	16d#/	.	.	.	.
.	16c##X/J	.	.	.	.
.	8d#/J)	.	.	.	.
.	4r	.	.	.	.
.	8r	.	.	.	.
=36	=36	=36	=36	=36	=36
2.r	(16d#/LL	p	4r	.	.
.	16e/	.	.	.	.
.	16d#/	.	.	.	.
.	16c##X/J	.	.	.	.
.	8d#/J)	.	8r	.	.
.	4r	.	4r	.	.
!	!	!	!LO:TX:a:i:t=molto cantabile	!	!LO:DY:a
.	8d#/	.	8d#/	Lecz	p
=37	=37	=37	=37	=37	=37
*	*^	*	*	*	*
[4.D#\ [4.c#	4.f##X/ 4.a#	16d#\LL	.	4.a#/	ty.	.
.	.	(>16e\	.	.	.	.
.	.	16d#\	.	.	.	.
.	.	16c##X\J	.	.	.	.
.	.	8d#\J)	.	.	.	.
4D#\] 4c#]	(8b/L	4.ryy	.	8b\	ty	.
.	8a#/	.	.	8a#/	lu-	.
8DD#/ 8D#	8c#X/J) 8f##X	.	.	8f##X/	-by	.
=38	=38	=38	=38	=38	=38	=38
*^	*	*	*	*	*	*
(16D#/LL	[4.GG#\	(16d#/LL	[4.B\	.	16d#/	zgi-	.
16E/	.	16a#/JJ	.	.	16a#/	-nąć	.
16D#/	.	[4g#/)	.	.	[4g#/	masz.	.
16C##X/J	.	.	.	.	.	.	.
[8D#/J)	.	.	.	.	.	.	.
!	!	!	!	!	!	!	!LO:HP:a
8D#/]	8GG#\]	8g#/L]	8B\]	.	8g#/]	.	<
8r	4ryy	(<8a#/	8rc	.	(8a#/L	Coś	.
8r	.	8b/J)	8rc	.	8b/J)	.	[
*	*	*v	*v	*	*	*	*
!!LO:LB:g=original	!	!	!	!	!	!
=39	=39	=39	=39	=39	=39	=39
*	*	*^	*	*	*	*
!	!	!	!	!	!	!	!LO:DY:a
(16e/LL	4.G#\	(16.cc#/LL	4.g#\	.	16.cc#\	ser-	mf
16d#/	.	.	.	.	.	.	.
.	.	32ff#/JJk	.	.	32ff#\	-ce	.
16e/	.	4ee\)	.	.	4ee\	me	.
16f#/J	.	.	.	.	.	.	.
8e/J)	.	.	.	.	.	.	.
!	!	!	!	!	!	!	!LO:DY:a
*	*	*Xtremolo	*	*	*	*	*
4r	4.ryy	8e/L 8g#	4.ryy	p	8g#/	poz-	p
.	.	(8e/ 8g#	.	.	8g#/	-nał	.
[>8d#\	.	8f##X/J) 8a#	.	.	8a#/	z mi-	.
*	*	*v	*v	*	*	*	*
=40	=40	=40	=40	=40	=40	=40
*	*	*^	*	*	*	*
(<16d#/LL]	4.G#\	(<16b/LL	[4.g#\	.	(16b\LL	-łoś-	.
16A#/	.	16ee/JJ)	.	.	16ee\JJ)	.	.
16B/	.	[4dd#/	.	.	[4dd#\	-cią	.
16c#/J	.	.	.	.	.	.	.
[8B/J)	.	.	.	.	.	.	.
8B/]	(>16G#\LL	8dd#/]	8g#\]	.	8dd#\]	.	.
.	16F##X\	.	.	.	.	.	.
4ryy	16G#\	8r	4ryy	.	8r	.	.
.	16A#\J	.	.	.	.	.	.
.	8G#\J)	8r	.	.	8r	.	.
=41	=41	=41	=41	=41	=41	=41	=41
!	!	!	!	!	!	!	!LO:DY:a
(16d#/LL	2.G#\	(4.gg#/	2.b\ 2.dd#	f	4.gg#\	To-	f
16c##X/	.	.	.	.	.	.	.
16d#/	.	.	.	.	.	.	.
16e/J	.	.	.	.	.	.	.
8d#/J)	.	.	.	.	.	.	.
4.g#/	.	4.ff#/)	.	.	4.ff#\	-bie	.
*	*	*v	*v	*	*	*	*
=42	=42	=42	=42	=42	=42	=42
!LO:N:n=1:acc=n#	!	!	!	!	!	!
(16c#X/LL	2.G#\	8cc#\L 8ee	.	8ee\	to-	.
16B#X/	.	.	.	.	.	.
16c#/	.	(8cc#\ 8ee	.	8ee\	-bie	.
16d#/J	.	.	.	.	.	.
!	!	!	!	!	!	!LO:HP:a
[8e/J)	.	8bn\J) 8dd#	.	8dd#\	mam	>
4.e/]	.	(16a#\LL 16cc#	.	(16cc#\LL	po-	.
.	.	16b\J 16dd#	>	16dd#\JJ)	.	.
.	.	8cc#\) 8ee	]]	8ee\	-dać	]
!	!	!	!	!	!	!LO:DY:a
.	.	8cc#\J 8ee	p	8ee\	tru-	p
!!LO:PB:g=original	!	!	!	!	!	!
=43	=43	=43	=43	=43	=43	=43
*	*	*^	*	*	*	*
(16c#/LL	2.G#\	(4.ff#/	2.a#\ 2.cc#	.	4.ff#\	-ją-	.
16B#X/	.	.	.	.	.	.	.
16c#/	.	.	.	.	.	.	.
16e/J	.	.	.	.	.	.	.
[8f##X/J)	.	.	.	.	.	.	.
4.f##/]	.	4.ee/)	.	.	4.ee\	-cy	.
*	*	*v	*v	*	*	*	*
=44	=44	=44	=44	=44	=44	=44
(16d#/LL	[4.G#\	8b\L 8dd#	.	[4.dd#\	jad,	.
16c##X/	.	.	.	.	.	.
16d#/	.	(8b\ 8dd#	.	.	.	.
16e/J	.	.	.	.	.	.
!	!	!LO:N:n=2:acc=n#	!	!	!	!
8d#/J	.	8a#\J) 8cc#X	.	.	.	.
8d#/)	8G#\]	(16g#/LL 16b	.	8dd#\]	.	.
.	.	16a#/J) 16cc#	.	.	.	.
8r	4ryy	8b/ 8dd#	.	8r	.	.
8r	.	8b/J 8dd#	.	8dd#\	Przed	.
*v	*v	*	*	*	*	*
=45	=45	=45	=45	=45	=45
!LO:N:vis=16	!	!	!	!	!
(40%3D#\L	4.c#/ 4.f##X 4.a#	.	4a#/	to-	.
!LO:N:vis=16	!	!	!	!	!
40%3E\	.	.	.	.	.
!LO:N:vis=16	!	!	!	!	!
40%3D#\	.	.	.	.	.
!LO:N:vis=16	!	!	!	!	!
40%3C##X\	.	.	.	.	.
.	.	.	8a#/	-bą	.
!LO:N:vis=16	!	!	!	!	!
40%3D#\J)	.	.	.	.	.
4.DD#/	(8e/L 8f## 8cc#	.	8cc#\	Or-	.
!	!	!	!	!	!LO:HP:a
.	8d#/ 8b	.	8b\	-ku	<
!	!	!	!LO:N:vis=4	!	!
.	8c#/J) 8f## 8a#	.	8a#/	ot-	[[
=46	=46	=46	=46	=46	=46
*^	*	*	*	*	*
(16D#/LL	[4.GG#\	(16.B/LL 16.g# 16.b	.	16.b\	-war-	.
16C##X/	.	.	.	.	.	.
.	.	32e/JJk 32ee	.	32ee\	-ta	.
16D#/	.	4d#/) 4b 4dd#	.	[4dd#\	bra-	.
16E/J	.	.	.	.	.	.
8D#/J	.	.	.	.	.	.
!	!	!	!	!	!	!LO:HP:a
8D#/)	8GG#\]	(16d#/LL	.	4dd#\]	.	>
.	.	16c##X/	.	.	.	.
8r	4ryy	16d#/	.	.	.	.
.	.	16e/J	.	.	.	.
8r	.	8B/J) 8d# 8g#	.	8g#/	-ma,	]]
*v	*v	*	*	*	*	*
!!LO:LB:g=original	!	!	!	!	!
=47	=47	=47	=47	=47	=47
*	*^	*	*	*	*
(16D#\LL	4.c#X/ 4.f##X	4.ryy	.	4.f##X/	Tam	.
16E\	.	.	.	.	.	.
16D#\	.	.	.	.	.	.
16C##X\J	.	.	.	.	.	.
8D#\J)	.	.	.	.	.	.
4DD#/	(8b/L	4c#\ 4f##	.	8b\	krwa-	.
.	8a#/	.	.	8a#/	-wy	.
8ryy	8f##/J)	8c#\	.	8f##/	cię	.
=48	=48	=48	=48	=48	=48	=48
*^	*	*	*	*	*	*
(16D#/LL	[4.GG#\	(<16.d#/LL	4.B\	.	16.d#/	wtrą-	.
16C##X/	.	.	.	.	.	.	.
.	.	32a#/JJk)	.	.	32a#/	-ca	.
16D#/	.	[<4g#/	.	.	[4g#/	kat!	.
16E/J	.	.	.	.	.	.	.
[8D#/J	.	.	.	.	.	.	.
8D#/])	8GG#\]	8g#/]	4.ryy	.	8g#/]	.	.
!	!	!	!	!	!LO:TX:a:t=(płacze)	!	!
8r	4ryy	8r	.	.	8r	.	.
8r	.	8d#/ 8dd#	.	.	8r	.	.
*v	*v	*	*	*	*	*	*
*	*v	*v	*	*	*	*
=49	=49	=49	=49	=49	=49
8GGG#\L 8GG#	4.a#\ 4.dd# 4.aa#	mf	2.r	.	.
8D#\ 8F##X 8c#	.	.	.	.	.
8F##\J 8c# 8d#	.	.	.	.	.
4c#\ 4d# 4f##X	(8b\L 8dd# 8bb	.	.	.	.
.	8a#\ 8aa#	.	.	.	.
8ryy	8f##X\J) 8ff##X	.	.	.	.
=50	=50	=50	=50	=50	=50
8GGG#\L 8GG#	(16d#\LL 16dd#	.	2.r	.	.
.	16a#\JJ) 16aa#	.	.	.	.
8D#\ 8G# 8B	[4g#\ [4gg#	.	.	.	.
8G#\J 8B 8d#	.	.	.	.	.
4B\ 4d#	8g#\L] 8gg#]	.	.	.	.
.	(8a#\ 8aa#	.	.	.	.
8r	8b\J) 8bb	.	.	.	.
!!LO:LB:g=original	!	!	!	!	!
=51	=51	=51	=51	=51	=51
8GGG#\L 8GG#	(16cc#\LL 16ccc#	.	2.r	.	.
.	16ff#\JJ) 16fff#	.	.	.	.
8C#\ 8E 8G#	[4ee\ [4eee	.	.	.	.
8E\J 8G# 8c#	.	.	.	.	.
4G#\ 4c# 4e	8ee\L] 8eee]	.	.	.	.
.	(8g#\ 8gg#	.	.	.	.
8r	8a#\J) 8aa#	.	.	.	.
=52	=52	=52	=52	=52	=52
8GGG#\L 8GG#	(16b\LL 16bb	.	4r	.	.
.	16ee\JJ 16eee	.	.	.	.
8D#\ 8G# 8B	[4dd#\) [4ddd#	.	.	.	.
8G#\J 8B 8d#	.	.	8r	.	.
4B\ 4d# 4g#	4dd#\] 4ddd#]	.	4r	.	.
!	!	!	!	!	!LO:DY:a
8r	8dd#\ 8ddd#	.	8dd#\	Ach	f
=53	=53	=53	=53	=53	=53
*	*8va	*	*	*	*
8GGG#\L 8GG#	4.gg#\ 4.bb 4.ggg#	<	4.gg#\	nie,	.
8D#\ 8G# 8B	.	.	.	.	.
8G#\J 8B 8d#	.	.	.	.	.
4B\ 4d# 4g#	4.ff#\ 4.fff#	[	4ff#\	ra-	.
8r	.	.	8ff#\	-czej	.
*	*X8va	*	*	*	*
=54	=54	=54	=54	=54	=54
8CC#\L 8C#	8ee\L 8eee	.	4r	.	.
8E\ 8G# 8A#	(8ee\ 8eee	.	.	.	.
8G#\J 8A# 8e	8dd#\J) 8ddd#	.	8dd#\	ja	.
8A#\ 8e 8g#	(16cc#\LL 16ccc#	.	(16cc#\LL	sa-	.
.	16dd#\JJ 16ddd#	.	16dd#\JJ)	.	.
8r	8ee\) 8eee	.	8ee\	-ma,	.
8r;	8r;	.	16r;	.	.
.	.	.	16ee\	ja	.
!!LO:LB:g=original	!	!	!	!	!
=55	=55	=55	=55	=55	=55
*Xtremolo	*tremolo	*	*	*	*
8DD#/L 8D#	32b\LLL 32dd# 32gg#	.	2.gg#\	sa-	.
.	32g#\	.	.	.	.
.	32b\ 32dd# 32gg#	.	.	.	.
.	32g#\	.	.	.	.
(8DD#/ 8D#	32b\ 32dd# 32gg#	.	.	.	.
.	32g#\	.	.	.	.
.	32b\ 32dd# 32gg#	.	.	.	.
.	32g#\	.	.	.	.
8CC#/J) 8C#	32b\ 32dd# 32gg#	.	.	.	.
.	32g#\	.	.	.	.
.	32b\ 32dd# 32gg#	.	.	.	.
.	32g#\	.	.	.	.
(16BBB/LL 16BB	32b\ 32dd# 32gg#	.	.	.	.
.	32g#\	.	.	.	.
16CC#/J 16C#	32b\ 32dd# 32gg#	.	.	.	.
.	32g#\	.	.	.	.
8DD#/ 8D#	32b\ 32dd# 32gg#	.	.	.	.
.	32g#\	.	.	.	.
.	32b\ 32dd# 32gg#	.	.	.	.
.	32g#\	.	.	.	.
8GG#/J) 8G#	32b\ 32dd# 32gg#	.	.	.	.
.	32g#\	.	.	.	.
.	32b\ 32dd# 32gg#	.	.	.	.
.	32g#\JJJ	.	.	.	.
=56	=56	=56	=56	=56	=56
8BB\L 8B	32b\LLL 32dd#	.	[4.dd#\	-ma	.
.	32g#\	.	.	.	.
.	32b\ 32dd#	.	.	.	.
.	32g#\	.	.	.	.
8FF##X\ 8F##X	32b\ 32dd#	.	.	.	.
.	32g#\	.	.	.	.
.	32b\ 32dd#	.	.	.	.
.	32g#\	.	.	.	.
8GG#\J 8G#	32b\ 32dd#	.	.	.	.
.	32g#\	.	.	.	.
.	32b\ 32dd#	.	.	.	.
.	32g#\JJJ	.	.	.	.
8D#\ 8d#	8g#\ 8b 8dd#	.	8dd#\]	.	.
8r	8r	.	8r	.	.
!	!	!	!LO:N:vis=8	!	!
8r	8r	.	16r	.	.
.	.	.	16gg#\	ja	.
=57	=57	=57	=57	=57	=57
4AAA#/ 4AA#	4cc#\ 4ee 4gg# 4bb	sf	([2.bb\	sa-	.
8r	8r	.	.	.	.
4r	4r	.	.	.	.
8r	8r	.	.	.	.
=58	=58	=58	=58	=58	=58
4DD#/ 4D#	4f##X\ 4cc# 4dd# 4ff##X	sf	4.bb\]	.	.
8r	8r	.	.	.	.
4r	4r	.	4.aa#\)	.	.
8r	8r	.	.	.	.
=59||	=59||	=59||	=59||	=59||	=59||
!	!LO:TX:a:B:t=Più mosso.	!	!LO:TX:a:B:t=Più mosso.	!	!
8GGG#/L 8GG#	4.g#\ 4.b 4.dd# 4.gg#	ff	[2.gg#\	-ma!	.
8BB/ 8D# 8G#	.	.	.	.	.
8D#/J 8G# 8B	.	.	.	.	.
4G#\ 4B 4d#	4.f#\ 4.b 4.ff#	.	.	.	.
8r	.	.	.	.	.
=60	=60	=60	=60	=60	=60
*	*Xtremolo	*	*	*	*
8GGG#/L 8GG#	8e/L 8ee	.	2.gg#\_	.	.
8C#/ 8E	(8e/ 8ee	.	.	.	.
8C#/J 8E 8G#	8d#/J) 8dd#	.	.	.	.
4E\ 4G# 4c#	(16e\LL 16ee	.	.	.	.
.	16f#\J 16ff#	.	.	.	.
.	8g#\ 8gg#	.	.	.	.
8r	8a#\J) 8aa#	.	.	.	.
!!LO:LB:g=original	!	!	!	!	!
=61	=61	=61	=61	=61	=61
8GGG#\L 8GG#	4.b\ 4.dd# 4.gg# 4.bb	.	4gg#\]	.	.
8D#\ 8G# 8B	.	.	.	.	.
8G#\J 8B 8d#	.	.	8r	.	.
4B\ 4d# 4g#	4.a#\ 4.aa#	.	4r	.	.
!	!	!	!LO:TX:a:t=(pada zemdlona)	!	!
8r	.	.	8r	.	.
=62	=62	=62	=62	=62	=62
8GGG#\L 8GG#	8g#\L 8gg#	.	2.r	.	.
8C#\ 8E 8G#	(8g#\ 8gg#	.	.	.	.
8E\J 8G# 8c#	8f##X\J) 8ff##X	.	.	.	.
4G#\ 4c# 4e	(16g#\LL 16gg#	.	.	.	.
.	16a#\J 16aa#	.	.	.	.
.	8b\ 8bb	.	.	.	.
8r	8cc#\J) 8ccc#	.	.	.	.
=63	=63	=63	=63	=63	=63
*	*tremolo	*	*	*	*
8GGG#/L 8GG#	32gg#\LLL 32bb 32ddd#	.	2.r	.	.
.	32dd#\	.	.	.	.
.	32gg#\ 32bb 32ddd#	.	.	.	.
.	32dd#\	.	.	.	.
8EE/ 8E	32gg#\ 32bb 32ddd#	.	.	.	.
.	32dd#\	.	.	.	.
.	32gg#\ 32bb 32ddd#	.	.	.	.
.	32dd#\	.	.	.	.
8DD#/J 8D#	32gg#\ 32bb 32ddd#	.	.	.	.
.	32dd#\	.	.	.	.
.	32gg#\ 32bb 32ddd#	.	.	.	.
.	32dd#\	.	.	.	.
8FF##X/L 8F##X	32gg#\ 32bb 32ddd#	.	.	.	.
.	32dd#\	.	.	.	.
.	32gg#\ 32bb 32ddd#	.	.	.	.
.	32dd#\	.	.	.	.
8GG#/ 8G#	32gg#\ 32bb 32ddd#	.	.	.	.
.	32dd#\	.	.	.	.
.	32gg#\ 32bb 32ddd#	.	.	.	.
.	32dd#\	.	.	.	.
8BB/J 8B	32gg#\ 32bb 32ddd#	.	.	.	.
.	32dd#\	.	.	.	.
.	32gg#\ 32bb 32ddd#	.	.	.	.
.	32dd#\JJJ	.	.	.	.
=64	=64	=64	=64	=64	=64
!	!	!	!LO:TX:a:t=(zasłona spada)	!	!
8E\L 8e	32gg#\LLL 32bb 32ddd#	.	2.r	.	.
.	32dd#\	.	.	.	.
.	32gg#\ 32bb 32ddd#	.	.	.	.
.	32dd#\	.	.	.	.
8C##X\ 8c##X	32gg#\ 32bb 32ddd#	.	.	.	.
.	32dd#\	.	.	.	.
.	32gg#\ 32bb 32ddd#	.	.	.	.
.	32dd#\	.	.	.	.
8D#\J 8d#	32gg#\ 32bb 32ddd#	.	.	.	.
.	32dd#\	.	.	.	.
.	32gg#\ 32bb 32ddd#	.	.	.	.
.	32dd#\	.	.	.	.
8BB/L 8B	32gg#\ 32bb 32ddd#	.	.	.	.
.	32dd#\	.	.	.	.
.	32gg#\ 32bb 32ddd#	.	.	.	.
.	32dd#\	.	.	.	.
8GG#/ 8G#	32gg#\ 32bb 32ddd#	.	.	.	.
.	32dd#\	.	.	.	.
.	32gg#\ 32bb 32ddd#	.	.	.	.
.	32dd#\	.	.	.	.
8DD#/J 8D#	32gg#\ 32bb 32ddd#	.	.	.	.
.	32dd#\	.	.	.	.
.	32gg#\ 32bb 32ddd#	.	.	.	.
.	32dd#\JJJ	.	.	.	.
=65	=65	=65	=65	=65	=65
4GGG#/ 4GG#	4dd#\ 4gg# 4bb 4ddd#	.	2.r	.	.
8r	8r	.	.	.	.
4r	4r	.	.	.	.
8r	8r	.	.	.	.
=66	=66	=66	=66	=66	=66
4GG#\ 4D# 4B	4b\ 4dd# 4gg# 4bb	sf	2.r	.	.
8r	8r	.	.	.	.
4r	4r	.	.	.	.
8r	8r	.	.	.	.
=67	=67	=67	=67	=67	=67
4GGG#/ 4GG#	4g#\ 4b 4dd# 4gg#	sf	2.r;	.	.
8r	8r	.	.	.	.
4r	4r	.	.	.	.
8r	8r	.	.	.	.
==	==	==	==	==	==
*-	*-	*-	*-	*-	*-
!!!system-decoration: s1{(s2,s3)}
!!!RDF**kern: > = above
!!!RDF**kern: < = below
!!!ENC: Berenika Jozajtis
!!!END: 2022-10-08
!!!ENC: Natalia Wrzos
!!!END: 2022-10-23
!!!YEC: Copyright 2022 Narodowy Instytut Fryderyka Chopina (https://polishscores.org)
!!!YEM: License CC-BY-4.0 (https://creativecommons.org/licenses/by/4.0)
